public/images/icons/codepen-network.svg

<svg width="40" height="40" viewBox="0 0 40 40" fill="none" xmlns="http://www.w3.org/2000/svg">
<path d="M20 36C24.2435 36 28.3131 34.3143 31.3137 31.3137C34.3143 28.3131 36 24.2435 36 20C36 15.7565 34.3143 11.6869 31.3137 8.68629C28.3131 5.68571 24.2435 4 20 4C15.7565 4 11.6869 5.68571 8.68629 8.68629C5.68571 11.6869 4 15.7565 4 20C4 24.2435 5.68571 28.3131 8.68629 31.3137C11.6869 34.3143 15.7565 36 20 36ZM20 40C8.954 40 0 31.046 0 20C0 8.954 8.954 0 20 0C31.046 0 40 8.954 40 20C40 31.046 31.046 40 20 40Z" fill="#292929"/>
<path d="M20.8014 10.2626C20.5377 10.088 20.2276 9.99653 19.9113 10.0001C19.5951 10.0037 19.2871 10.1021 19.0274 10.2826L11.0774 15.8206C10.8683 15.966 10.6975 16.1598 10.5794 16.3854C10.4614 16.6111 10.3996 16.8619 10.3994 17.1166V23.0806C10.3996 23.3419 10.4645 23.599 10.5884 23.829C10.7123 24.059 10.8913 24.2547 11.1094 24.3986L19.1874 29.7386C19.4456 29.9089 19.7481 29.9997 20.0574 29.9997C20.3667 29.9997 20.6692 29.9089 20.9274 29.7386L29.1674 24.2946C29.3849 24.1507 29.5633 23.9552 29.6868 23.7256C29.8104 23.496 29.8752 23.2393 29.8754 22.9786V17.1186C29.8758 16.8572 29.8113 16.5997 29.6878 16.3694C29.5642 16.139 29.3854 15.9429 29.1674 15.7986L20.7994 10.2626H20.8014ZM26.9554 16.7226L23.9094 18.7686L21.0534 16.6926L21.0354 12.6066L26.9554 16.7246V16.7226ZM18.9694 12.6126V16.6106L16.0434 18.6546L13.1234 16.6966L18.9694 12.6106V12.6126ZM12.3254 18.6666L14.2134 19.9326L12.3254 21.2546V18.6666ZM19.0194 27.1886L13.1254 23.2366L16.0694 21.1786L19.0194 23.1586V27.1886ZM17.8994 19.9006L19.8094 18.5666L22.0294 20.0266L20.0614 21.3506L17.9014 19.9006H17.8994ZM21.1014 27.1886V23.1566L23.9214 21.2686L26.9554 23.2626L21.1014 27.1886ZM27.7954 21.3226L25.7954 20.0086L27.7954 18.6666V21.3226Z" fill="#292929"/>
</svg>

<svg width="40" height="40" fill="none" xmlns="http://www.w3.org/2000/svg"><path d="M20 36a16 16 0 1 0 0-32 16 16 0 0 0 0 32Zm0 4C8.954 40 0 31.046 0 20S8.954 0 20 0s20 8.954 20 20-8.954 20-20 20Z" fill="#292929"/><path d="M20.801 10.263a1.58 1.58 0 0 0-1.774.02l-7.95 5.538a1.58 1.58 0 0 0-.678 1.296v5.964a1.58 1.58 0 0 0 .71 1.318l8.078 5.34a1.58 1.58 0 0 0 1.74 0l8.24-5.444a1.58 1.58 0 0 0 .708-1.316v-5.86a1.58 1.58 0 0 0-.708-1.32L20.8 10.263h.002Zm6.154 6.46-3.046 2.046-2.856-2.076-.018-4.086 5.92 4.118v-.002Zm-7.986-4.11v3.998l-2.926 2.044-2.92-1.958 5.846-4.086v.002Zm-6.644 6.054 1.888 1.266-1.888 1.322v-2.588Zm6.694 8.522-5.894-3.952 2.944-2.058 2.95 1.98v4.03ZM17.9 19.9l1.91-1.334 2.22 1.46-1.968 1.324-2.16-1.45H17.9Zm3.202 7.288v-4.032l2.82-1.888 3.034 1.994-5.854 3.926Zm6.694-5.866-2-1.314 2-1.342v2.656Z" fill="#292929"/></svg>
